images/ctoken-sai.svg

<svg height="250" viewBox="0 0 250 250" width="250" xmlns="http://www.w3.org/2000/svg" xmlns:xlink="http://www.w3.org/1999/xlink"><linearGradient id="a" gradientTransform="scale(.976562 .972763)" gradientUnits="userSpaceOnUse" x1="96.456398" x2="136.022003" y1="15.5724" y2="234.931"><stop offset="0" stop-color="#27d3a2"/><stop offset="1" stop-color="#9388fd"/></linearGradient><path d="m247.617188 113c6.710937 67.457031-42.75 127.558594-110.46875 134.242188-67.71875 6.683593-128.054688-42.582032-134.765626-110.039063-6.710937-67.457031 42.75-127.558594 110.46875-134.242187 67.71875-6.683594 128.054688 42.582031 134.765626 110.039062zm0 0" fill="#f9fafb"/><path d="m203.222656 219.933594c-18.828125 15.410156-41.824218 24.914062-66.074218 27.308594-32.519532 3.207031-64.988282-6.582032-90.261719-27.21875-25.273438-20.636719-41.28125-50.425782-44.503907-82.820313-2.4023432-24.15625 2.441407-48.480469 13.914063-69.898437 11.476563-21.414063 29.070313-38.960938 50.554687-50.414063 21.488282-11.457031 45.898438-16.308594 70.15625-13.941406 24.253907 2.363281 47.257813 11.839843 66.105469 27.230469l-24.855469 30.203124c-12.851562-10.496093-28.535156-16.957031-45.070312-18.566406-16.539062-1.613281-33.183594 1.695313-47.832031 9.503906-14.652344 7.8125-26.644531 19.773438-34.46875 34.375-7.824219 14.601563-11.128907 31.1875-9.488281 47.65625 2.195312 22.085938 13.109374 42.398438 30.34375 56.46875 17.230468 14.070313 39.367187 20.746094 61.539062 18.558594 16.539062-1.632812 32.214844-8.113281 45.054688-18.621094zm0 0" fill="url(#a)"/><path d="m125 226.269531c56.09375 0 101.5625-45.292969 101.5625-101.167969s-45.46875-101.167968-101.5625-101.167968c-56.089844 0-101.5625 45.292968-101.5625 101.167968s45.472656 101.167969 101.5625 101.167969zm0 0" fill="#fff"/><path d="m125.398438 176.328125-51.976563-52.96875 51.578125 18.71875 51.578125-18.71875zm0 0" fill="#657786"/><path d="m73.421875 123.359375 51.578125-51.375 51.578125 51.375-51.578125 18.71875zm14.792969.398437h22.390625l14.792969-14.734374 14.792968 14.734374h21.992188l-36.785156-36.636718zm0 0" fill="#283947" fill-rule="evenodd"/></svg>

<svg xmlns="http://www.w3.org/2000/svg" width="250" height="250"><linearGradient id="a" x1="96.456" x2="136.022" y1="15.572" y2="234.931" gradientTransform="scale(.97656 .97276)" gradientUnits="userSpaceOnUse"><stop offset="0" stop-color="#27d3a2"/><stop offset="1" stop-color="#9388fd"/></linearGradient><path fill="#f9fafb" d="M247.617 113c6.711 67.457-42.75 127.559-110.469 134.242C69.43 253.926 9.094 204.66 2.383 137.203-4.328 69.746 45.133 9.645 112.852 2.961 180.57-3.723 240.906 45.543 247.617 113zm0 0"/><path fill="url(#a)" d="M203.223 219.934a123.487 123.487 0 0 1-66.075 27.308c-32.52 3.207-64.988-6.582-90.261-27.219-25.274-20.636-41.282-50.425-44.504-82.82a122.37 122.37 0 0 1 13.914-69.898A122.982 122.982 0 0 1 66.852 16.89a123.605 123.605 0 0 1 70.156-13.942 123.443 123.443 0 0 1 66.105 27.23l-24.855 30.204a84.135 84.135 0 0 0-45.07-18.567 84.296 84.296 0 0 0-47.833 9.504 83.842 83.842 0 0 0-34.468 34.375 83.392 83.392 0 0 0-9.489 47.657c2.196 22.085 13.11 42.398 30.344 56.468 17.23 14.07 39.367 20.746 61.54 18.559a84.197 84.197 0 0 0 45.054-18.621zm0 0"/><path fill="#fff" d="M125 226.27c56.094 0 101.563-45.293 101.563-101.168S181.093 23.934 125 23.934c-56.09 0-101.563 45.293-101.563 101.168S68.91 226.27 125 226.27zm0 0"/><path fill="#657786" d="M125.398 176.328 73.422 123.36 125 142.08l51.578-18.72zm0 0"/><path fill="#283947" fill-rule="evenodd" d="M73.422 123.36 125 71.983l51.578 51.375L125 142.08zm14.793.398h22.39l14.793-14.735 14.793 14.735h21.993L125.398 87.12zm0 0"/></svg>
